;START_OF_HEADER
;HEADER_VERSION:0.1
;FLAVOR:Griffin
;GENERATOR.NAME:Cura_SteamEngine
;GENERATOR.VERSION:4.11.0
;GENERATOR.BUILD_DATE:2021-09-07
;TARGET_MACHINE.NAME:Ultimaker 3 Extended
;EXTRUDER_TRAIN.0.INITIAL_TEMPERATURE:210
;EXTRUDER_TRAIN.0.MATERIAL.VOLUME_USED:3778
;EXTRUDER_TRAIN.0.MATERIAL.GUID:506c9f0d-e3aa-4bd4-b2d2-23e2425b1aa9
;EXTRUDER_TRAIN.0.NOZZLE.DIAMETER:0.4
;EXTRUDER_TRAIN.0.NOZZLE.NAME:AA 0.4
;BUILD_PLATE.TYPE:glass
;BUILD_PLATE.INITIAL_TEMPERATURE:60
;PRINT.TIME:1190
;PRINT.GROUPS:1
;PRINT.SIZE.MIN.X:9
;PRINT.SIZE.MIN.Y:6
;PRINT.SIZE.MIN.Z:0.27
;PRINT.SIZE.MAX.X:133.497
;PRINT.SIZE.MAX.Y:124.43
;PRINT.SIZE.MAX.Z:20.07
;END_OF_HEADER
;Generated with Cura_SteamEngine 4.11.0
T0
M82 ;absolute extrusion mode

G92 E0
M109 S210
G0 F15000 X9 Y6 Z2
G280
G1 F1500 E-6.5
;LAYER_COUNT:100
;LAYER:0
M107
M204 S625
M205 X6 Y6
G1 F600 Z2.27
G0 F4285.7 X101.507 Y92.765 Z2.27
M204 S500
M205 X5 Y5
;TYPE:SKIRT
G1 F600 Z0.27
G1 F1500 E0
G1 F1200 X102.044 Y92.25 E0.01323
G1 X102.633 Y91.795 E0.02646
G1 X103.267 Y91.406 E0.03968
G1 X103.94 Y91.087 E0.05292
G1 X104.643 Y90.842 E0.06615
G1 X105.368 Y90.674 E0.07938
G1 X106.107 Y90.585 E0.09261
G1 X106.567 Y90.57 E0.10079
G1 X126.567 Y90.57 E0.45631
G1 X127.31 Y90.61 E0.46954
G1 X128.045 Y90.729 E0.48277
G1 X128.763 Y90.927 E0.49601
G1 X129.455 Y91.2 E0.50924
G1 X130.114 Y91.546 E0.52247
G1 X130.732 Y91.961 E0.5357
G1 X131.302 Y92.44 E0.54894
G1 X131.817 Y92.977 E0.56216
G1 X132.272 Y93.566 E0.57539
G1 X132.661 Y94.2 E0.58861
G1 X132.98 Y94.873 E0.60185
G1 X133.225 Y95.576 E0.61509
G1 X133.393 Y96.301 E0.62832
G1 X133.482 Y97.04 E0.64155
G1 X133.497 Y97.5 E0.64973
G1 X133.497 Y117.5 E1.00525
G1 X133.457 Y118.243 E1.01848
G1 X133.338 Y118.978 E1.03171
G1 X133.14 Y119.696 E1.04495
G1 X132.867 Y120.388 E1.05817
G1 X132.521 Y121.047 E1.0714
G1 X132.106 Y121.665 E1.08464
G1 X131.627 Y122.235 E1.09787
G1 X131.09 Y122.75 E1.1111
G1 X130.501 Y123.205 E1.12433
G1 X129.867 Y123.594 E1.13755
G1 X129.194 Y123.913 E1.15079
G1 X128.491 Y124.158 E1.16402
G1 X127.766 Y124.326 E1.17725
G1 X127.027 Y124.415 E1.19048
G1 X126.567 Y124.43 E1.19867
G1 X106.567 Y124.43 E1.55418
G1 X105.824 Y124.39 E1.56741
G1 X105.089 Y124.271 E1.58065
G1 X104.371 Y124.073 E1.59389
G1 X103.679 Y123.8 E1.60711
G1 X103.02 Y123.454 E1.62034
G1 X102.402 Y123.039 E1.63357
G1 X101.832 Y122.56 E1.64681
G1 X101.317 Y122.023 E1.66003
G1 X100.862 Y121.434 E1.67326
G1 X100.473 Y120.8 E1.68649
G1 X100.154 Y120.127 E1.69973
G1 X99.909 Y119.424 E1.71296
G1 X99.741 Y118.699 E1.72619
G1 X99.652 Y117.96 E1.73942
G1 X99.637 Y117.5 E1.7476
G1 X99.637 Y97.5 E2.10312
G1 X99.677 Y96.757 E2.11635
G1 X99.796 Y96.022 E2.12958
G1 X99.994 Y95.304 E2.14282
G1 X100.267 Y94.612 E2.15605
G1 X100.613 Y93.953 E2.16928
G1 X101.028 Y93.335 E2.18251
G1 X101.507 Y92.765 E2.19574
M204 S625
M205 X6 Y6
G0 F4285.7 X101.921 Y92.94
M204 S500
M205 X5 Y5
G1 F1200 X102.454 Y92.454 E2.20857
G1 X103.038 Y92.03 E2.2214
G1 X103.665 Y91.673 E2.23422
G1 X104.327 Y91.387 E2.24704
G1 X105.017 Y91.177 E2.25986
G1 X105.726 Y91.045 E2.27268
G1 X106.567 Y90.99 E2.28766
G1 X126.567 Y90.99 E2.64318
G1 X127.287 Y91.03 E2.656
G1 X127.999 Y91.149 E2.66883
G1 X128.693 Y91.347 E2.68166
G1 X129.36 Y91.62 E2.69447
G1 X129.994 Y91.965 E2.7073
G1 X130.585 Y92.378 E2.72012
G1 X131.127 Y92.854 E2.73294
G1 X131.613 Y93.387 E2.74576
G1 X132.037 Y93.971 E2.75859
G1 X132.394 Y94.598 E2.77142
G1 X132.68 Y95.26 E2.78424
G1 X132.89 Y95.95 E2.79706
G1 X133.022 Y96.659 E2.80988
G1 X133.077 Y97.5 E2.82486
G1 X133.077 Y117.5 E3.18038
G1 X133.037 Y118.22 E3.1932
G1 X132.918 Y118.932 E3.20603
G1 X132.72 Y119.626 E3.21886
G1 X132.447 Y120.293 E3.23167
G1 X132.102 Y120.927 E3.2445
G1 X131.689 Y121.518 E3.25732
G1 X131.213 Y122.06 E3.27014
G1 X130.68 Y122.546 E3.28296
G1 X130.096 Y122.97 E3.29579
G1 X129.469 Y123.327 E3.30862
G1 X128.807 Y123.613 E3.32143
G1 X128.117 Y123.823 E3.33426
G1 X127.408 Y123.955 E3.34707
G1 X126.567 Y124.01 E3.36206
G1 X106.567 Y124.01 E3.71758
G1 X105.847 Y123.97 E3.73039
G1 X105.135 Y123.851 E3.74323
G1 X104.441 Y123.653 E3.75606
G1 X103.774 Y123.38 E3.76887
G1 X103.14 Y123.035 E3.7817
G1 X102.549 Y122.622 E3.79451
G1 X102.007 Y122.146 E3.80734
G1 X101.521 Y121.613 E3.82016
G1 X101.097 Y121.029 E3.83299
G1 X100.74 Y120.402 E3.84581
G1 X100.454 Y119.74 E3.85863
G1 X100.244 Y119.05 E3.87145
G1 X100.112 Y118.341 E3.88427
G1 X100.057 Y117.5 E3.89925
G1 X100.057 Y97.5 E4.25477
G1 X100.097 Y96.78 E4.26759
G1 X100.216 Y96.068 E4.28042
G1 X100.414 Y95.374 E4.29325
G1 X100.687 Y94.707 E4.30606
G1 X101.032 Y94.073 E4.31889
G1 X101.445 Y93.482 E4.33171
G1 X101.921 Y92.94 E4.34453
M204 S625
M205 X6 Y6
G0 F4285.7 X102.335 Y93.121
M204 S500
M205 X5 Y5
G1 F1200 X102.863 Y92.666 E4.35692
G1 X103.44 Y92.274 E4.36932
G1 X104.059 Y91.951 E4.38173
G1 X104.71 Y91.7 E4.39414
G1 X105.386 Y91.526 E4.40655
G1 X106.077 Y91.43 E4.41895
G1 X106.567 Y91.41 E4.42766
G1 X126.567 Y91.41 E4.78318
G1 X127.264 Y91.45 E4.79559
G1 X127.951 Y91.569 E4.80799
G1 X128.62 Y91.767 E4.82039
G1 X129.263 Y92.039 E4.8328
G1 X129.869 Y92.383 E4.84519
G1 X130.433 Y92.795 E4.8576
G1 X130.946 Y93.268 E4.87001
G1 X131.401 Y93.796 E4.8824
G1 X131.793 Y94.373 E4.8948
G1 X132.116 Y94.992 E4.90721
G1 X132.367 Y95.643 E4.91961
G1 X132.541 Y96.319 E4.93202
G1 X132.637 Y97.01 E4.94442
G1 X132.657 Y97.5 E4.95314
G1 X132.657 Y117.5 E5.30866
G1 X132.617 Y118.197 E5.32107
G1 X132.498 Y118.884 E5.33346
G1 X132.3 Y119.553 E5.34586
G1 X132.028 Y120.196 E5.35827
G1 X131.684 Y120.802 E5.37066
G1 X131.272 Y121.366 E5.38308
G1 X130.799 Y121.879 E5.39548
G1 X130.271 Y122.334 E5.40787
G1 X129.694 Y122.726 E5.42027
G1 X129.075 Y123.049 E5.43268
G1 X128.424 Y123.3 E5.44508
G1 X127.748 Y123.474 E5.45749
G1 X127.057 Y123.57 E5.46989
G1 X126.567 Y123.59 E5.47861
G1 X106.567 Y123.59 E5.83413
G1 X105.87 Y123.55 E5.84654
G1 X105.183 Y123.431 E5.85893
G1 X104.514 Y123.233 E5.87134
G1 X103.871 Y122.961 E5.88375
G1 X103.265 Y122.617 E5.89613
G1 X102.701 Y122.205 E5.90855
G1 X102.188 Y121.732 E5.92095
G1 X101.733 Y121.204 E5.93334
G1 X101.341 Y120.627 E5.94574
G1 X101.018 Y120.008 E5.95815
G1 X100.767 Y119.357 E5.97056
G1 X100.593 Y118.681 E5.98296
G1 X100.497 Y117.99 E5.99537
G1 X100.477 Y117.5 E6.00408
G1 X100.477 Y97.5 E6.3596
G1 X100.517 Y96.803 E6.37201
G1 X100.636 Y96.116 E6.38441
G1 X100.834 Y95.447 E6.39681
G1 X101.106 Y94.804 E6.40922
G1 X101.45 Y94.198 E6.42161
G1 X101.862 Y93.634 E6.43402
G1 X102.335 Y93.121 E6.44643
M204 S625
M205 X6 Y6
G0 F4285.7 X102.277 Y93.792
M204 S500
M205 X5 Y5
G1 F1200 X102.747 Y93.31 E6.45839
G1 X103.271 Y92.887 E6.47036
G1 X103.841 Y92.528 E6.48234
G1 X104.449 Y92.24 E6.4943
G1 X105.087 Y92.026 E6.50626
G1 X105.747 Y91.89 E6.51824
G1 X106.567 Y91.83 E6.53285
G1 X126.567 Y91.83 E6.88837
G1 X127.239 Y91.87 E6.90034
G1 X127.902 Y91.989 E6.91231
G1 X128.545 Y92.186 E6.92427
G1 X129.161 Y92.458 E6.93624
G1 X129.74 Y92.801 E6.9482
G1 X130.275 Y93.21 E6.96017
G1 X130.757 Y93.68 E6.97214
G1 X131.18 Y94.204 E6.98411
G1 X131.539 Y94.774 E6.99608
G1 X131.827 Y95.382 E7.00804
G1 X132.041 Y96.02 E7.02
G1 X132.177 Y96.68 E7.03198
G1 X132.237 Y97.5 E7.0466
G1 X132.237 Y117.5 E7.40212
G1 X132.197 Y118.172 E7.41408
G1 X132.078 Y118.835 E7.42606
G1 X131.881 Y119.478 E7.43801
G1 X131.609 Y120.094 E7.44998
G1 X131.266 Y120.673 E7.46194
G1 X130.857 Y121.208 E7.47392
G1 X130.387 Y121.69 E7.48588
G1 X129.863 Y122.113 E7.49785
G1 X129.293 Y122.472 E7.50983
G1 X128.685 Y122.76 E7.52179
G1 X128.047 Y122.974 E7.53375
G1 X127.387 Y123.11 E7.54573
G1 X126.567 Y123.17 E7.56034
G1 X106.567 Y123.17 E7.91586
G1 X105.895 Y123.13 E7.92783
G1 X105.232 Y123.011 E7.9398
G1 X104.589 Y122.814 E7.95176
G1 X103.973 Y122.542 E7.96373
G1 X103.394 Y122.199 E7.97569
G1 X102.859 Y121.79 E7.98766
G1 X102.377 Y121.32 E7.99963
G1 X101.954 Y120.796 E8.0116
G1 X101.595 Y120.226 E8.02357
G1 X101.307 Y119.618 E8.03553
G1 X101.093 Y118.98 E8.04749
G1 X100.957 Y118.32 E8.05947
G1 X100.897 Y117.5 E8.07409
G1 X100.897 Y97.5 E8.42961
G1 X100.937 Y96.828 E8.44157
G1 X101.056 Y96.165 E8.45355
G1 X101.253 Y95.522 E8.4655
G1 X101.525 Y94.906 E8.47747
G1 X101.868 Y94.327 E8.48944
G1 X102.277 Y93.792 E8.50141
M204 S625
M205 X6 Y6
G0 F4285.7 X102.693 Y93.957
M204 S500
M205 X5 Y5
G1 F1200 X103.159 Y93.507 E8.51292
G1 X103.676 Y93.118 E8.52442
G1 X104.238 Y92.795 E8.53595
G1 X104.835 Y92.544 E8.54746
G1 X105.459 Y92.368 E8.55898
G1 X106.099 Y92.271 E8.57049
G1 X106.567 Y92.25 E8.57882
G1 X126.567 Y92.25 E8.93434
G1 X127.214 Y92.29 E8.94586
G1 X127.85 Y92.409 E8.95736
G1 X128.467 Y92.606 E8.96887
G1 X129.056 Y92.877 E8.9804
G1 X129.606 Y93.219 E8.99191
G1 X130.11 Y93.626 E9.00343
G1 X130.56 Y94.092 E9.01494
G1 X130.949 Y94.609 E9.02644
G1 X131.272 Y95.171 E9.03797
G1 X131.523 Y95.768 E9.04948
G1 X131.699 Y96.392 E9.061
G1 X131.796 Y97.032 E9.07251
G1 X131.817 Y97.5 E9.08084
G1 X131.817 Y117.5 E9.43636
G1 X131.777 Y118.147 E9.44788
G1 X131.658 Y118.783 E9.45938
G1 X131.461 Y119.4 E9.47089
G1 X131.19 Y119.989 E9.48242
G1 X130.848 Y120.539 E9.49393
G1 X130.441 Y121.043 E9.50545
G1 X129.975 Y121.493 E9.51696
G1 X129.458 Y121.882 E9.52846
G1 X128.896 Y122.205 E9.53999
G1 X128.299 Y122.456 E9.5515
G1 X127.675 Y122.632 E9.56302
G1 X127.035 Y122.729 E9.57453
G1 X126.567 Y122.75 E9.58286
G1 X106.567 Y122.75 E9.93838
G1 X105.92 Y122.71 E9.9499
G1 X105.284 Y122.591 E9.9614
G1 X104.667 Y122.394 E9.97292
G1 X104.078 Y122.123 E9.98444
G1 X103.528 Y121.781 E9.99595
G1 X103.024 Y121.374 E10.00747
G1 X102.574 Y120.908 E10.01898
G1 X102.185 Y120.391 E10.03049
G1 X101.862 Y119.829 E10.04201
G1 X101.611 Y119.232 E10.05352
G1 X101.435 Y118.608 E10.06505
G1 X101.338 Y117.968 E10.07655
G1 X101.317 Y117.5 E10.08488
G1 X101.317 Y97.5 E10.4404
G1 X101.357 Y96.853 E10.45192
G1 X101.476 Y96.217 E10.46342
G1 X101.673 Y95.6 E10.47494
G1 X101.944 Y95.011 E10.48646
G1 X102.286 Y94.461 E10.49797
G1 X102.693 Y93.957 E10.50949
M204 S625
M205 X6 Y6
G0 F4285.7 X103.107 Y94.13
M204 S500
M205 X5 Y5
G1 F1200 X103.569 Y93.713 E10.52055
G1 X104.079 Y93.36 E10.53158
G1 X104.631 Y93.075 E10.54262
G1 X105.216 Y92.863 E10.55368
G1 X105.822 Y92.728 E10.56472
G1 X106.567 Y92.67 E10.578
G1 X126.567 Y92.67 E10.93352
G1 X127.187 Y92.71 E10.94457
G1 X127.797 Y92.829 E10.95561
G1 X128.386 Y93.026 E10.96665
G1 X128.945 Y93.296 E10.97769
G1 X129.465 Y93.636 E10.98873
G1 X129.937 Y94.04 E10.99978
G1 X130.354 Y94.502 E11.01084
G1 X130.707 Y95.012 E11.02187
G1 X130.992 Y95.564 E11.03291
G1 X131.204 Y96.149 E11.04397
G1 X131.339 Y96.755 E11.05501
G1 X131.397 Y97.5 E11.06829
G1 X131.397 Y117.5 E11.42381
G1 X131.357 Y118.12 E11.43485
G1 X131.238 Y118.73 E11.4459
G1 X131.041 Y119.319 E11.45694
G1 X130.771 Y119.878 E11.46798
G1 X130.431 Y120.398 E11.47902
G1 X130.027 Y120.87 E11.49006
G1 X129.565 Y121.287 E11.50113
G1 X129.055 Y121.64 E11.51215
G1 X128.503 Y121.925 E11.5232
G1 X127.918 Y122.137 E11.53426
G1 X127.312 Y122.272 E11.54529
G1 X126.567 Y122.33 E11.55858
G1 X106.567 Y122.33 E11.91409
G1 X105.947 Y122.29 E11.92514
G1 X105.337 Y122.171 E11.93619
G1 X104.748 Y121.974 E11.94723
G1 X104.189 Y121.704 E11.95826
G1 X103.669 Y121.364 E11.96931
G1 X103.197 Y120.96 E11.98035
G1 X102.78 Y120.498 E11.99141
G1 X102.427 Y119.988 E12.00244
G1 X102.142 Y119.436 E12.01348
G1 X101.93 Y118.851 E12.02454
G1 X101.795 Y118.245 E12.03558
G1 X101.737 Y117.5 E12.04886
G1 X101.737 Y97.5 E12.40438
G1 X101.777 Y96.88 E12.41543
G1 X101.896 Y96.27 E12.42647
G1 X102.093 Y95.681 E12.43751
G1 X102.363 Y95.122 E12.44855
G1 X102.703 Y94.602 E12.45959
G1 X103.107 Y94.13 E12.47064
M204 S625
M205 X6 Y6
G0 F4285.7 X103.521 Y94.311
M204 S500
M205 X5 Y5
G1 F1200 X103.977 Y93.931 E12.48119
G1 X104.48 Y93.615 E12.49175
G1 X105.02 Y93.37 E12.50229
G1 X105.589 Y93.2 E12.51284
G1 X106.175 Y93.107 E12.52339
G1 X106.567 Y93.09 E12.53037
G1 X126.567 Y93.09 E12.88589
G1 X127.159 Y93.13 E12.89643
G1 X127.741 Y93.249 E12.90699
G1 X128.301 Y93.445 E12.91754
G1 X128.83 Y93.715 E12.9281
G1 X129.318 Y94.053 E12.93865
G1 X129.756 Y94.454 E12.94921
G1 X130.136 Y94.91 E12.95976
G1 X130.452 Y95.413 E12.97032
G1 X130.697 Y95.953 E12.98086
G1 X130.867 Y96.522 E12.99141
G1 X130.96 Y97.108 E13.00196
G1 X130.977 Y97.5 E13.00893
G1 X130.977 Y117.5 E13.36445
G1 X130.937 Y118.092 E13.375
G1 X130.818 Y118.674 E13.38556
G1 X130.622 Y119.234 E13.39611
G1 X130.352 Y119.763 E13.40667
G1 X130.014 Y120.251 E13.41722
G1 X129.613 Y120.689 E13.42777
G1 X129.157 Y121.069 E13.43833
G1 X128.654 Y121.385 E13.44888
G1 X128.114 Y121.63 E13.45943
G1 X127.545 Y121.8 E13.46998
G1 X126.959 Y121.893 E13.48053
G1 X126.567 Y121.91 E13.4875
G1 X106.567 Y121.91 E13.84302
G1 X105.975 Y121.87 E13.85357
G1 X105.393 Y121.751 E13.86413
G1 X104.833 Y121.555 E13.87468
G1 X104.304 Y121.285 E13.88523
G1 X103.816 Y120.947 E13.89579
G1 X103.378 Y120.546 E13.90634
G1 X102.998 Y120.09 E13.91689
G1 X102.682 Y119.587 E13.92745
G1 X102.437 Y119.047 E13.93799
G1 X102.267 Y118.478 E13.94855
G1 X102.174 Y117.892 E13.9591
G1 X102.157 Y117.5 E13.96607
G1 X102.157 Y97.5 E14.32159
G1 X102.197 Y96.908 E14.33214
G1 X102.316 Y96.326 E14.3427
G1 X102.512 Y95.766 E14.35325
G1 X102.782 Y95.237 E14.3638
G1 X103.12 Y94.749 E14.37436
G1 X103.521 Y94.311 E14.38491
M204 S625
M205 X6 Y6
G0 F4285.7 X103.536 Y94.905
M204 S500
M205 X5 Y5
G1 F1200 X103.933 Y94.503 E14.39495
G1 X104.382 Y94.161 E14.40499
G1 X104.876 Y93.886 E14.41504
G1 X105.403 Y93.684 E14.42507
G1 X105.953 Y93.558 E14.4351
G1 X106.567 Y93.51 E14.44605
G1 X126.567 Y93.51 E14.80157
G1 X127.13 Y93.55 E14.8116
G1 X127.682 Y93.669 E14.82164
G1 X128.212 Y93.865 E14.83168
G1 X128.708 Y94.133 E14.84171
G1 X129.162 Y94.469 E14.85175
G1 X129.564 Y94.866 E14.86179
G1 X129.906 Y95.315 E14.87182
G1 X130.181 Y95.809 E14.88187
G1 X130.383 Y96.336 E14.8919
G1 X130.509 Y96.886 E14.90193
G1 X130.557 Y97.5 E14.91288
G1 X130.557 Y117.5 E15.2684
G1 X130.517 Y118.063 E15.27843
G1 X130.398 Y118.615 E15.28847
G1 X130.202 Y119.145 E15.29852
G1 X129.934 Y119.641 E15.30854
G1 X129.598 Y120.095 E15.31858
G1 X129.201 Y120.497 E15.32862
G1 X128.752 Y120.839 E15.33866
G1 X128.258 Y121.114 E15.34871
G1 X127.731 Y121.316 E15.35874
G1 X127.181 Y121.442 E15.36877
G1 X126.567 Y121.49 E15.37972
G1 X106.567 Y121.49 E15.73524
G1 X106.004 Y121.45 E15.74527
G1 X105.452 Y121.331 E15.75531
G1 X104.922 Y121.135 E15.76535
G1 X104.426 Y120.867 E15.77537
G1 X103.972 Y120.531 E15.78541
G1 X103.57 Y120.134 E15.79546
G1 X103.228 Y119.685 E15.80549
G1 X102.953 Y119.191 E15.81554
G1 X102.751 Y118.664 E15.82557
G1 X102.625 Y118.114 E15.8356
G1 X102.577 Y117.5 E15.84655
G1 X102.577 Y97.5 E16.20207
G1 X102.617 Y96.937 E16.2121
G1 X102.736 Y96.385 E16.22214
G1 X102.932 Y95.855 E16.23218
G1 X103.2 Y95.359 E16.24221
G1 X103.536 Y94.905 E16.25225
M204 S625
M205 X6 Y6
G0 F4285.7 X103.952 Y95.07
M204 S500
M205 X5 Y5
G1 F1200 X104.343 Y94.707 E16.26173
G1 X104.785 Y94.407 E16.27123
G1 X105.266 Y94.175 E16.28072
G1 X105.777 Y94.019 E16.29022
G1 X106.567 Y93.93 E16.30435
G1 X126.567 Y93.93 E16.65987
G1 X127.1 Y93.97 E16.66937
G1 X127.62 Y94.089 E16.67885
G1 X128.117 Y94.284 E16.68834
G1 X128.58 Y94.551 E16.69784
G1 X128.997 Y94.885 E16.70734
G1 X129.36 Y95.276 E16.71682
G1 X129.66 Y95.718 E16.72632
G1 X129.892 Y96.199 E16.73581
G1 X130.048 Y96.71 E16.74531
G1 X130.137 Y97.5 E16.75944
G1 X130.137 Y117.5 E17.11496
G1 X130.097 Y118.033 E17.12446
G1 X129.978 Y118.553 E17.13395
G1 X129.783 Y119.05 E17.14344
G1 X129.516 Y119.513 E17.15294
G1 X129.182 Y119.93 E17.16243
G1 X128.791 Y120.293 E17.17192
G1 X128.349 Y120.593 E17.18141
G1 X127.868 Y120.825 E17.19091
G1 X127.357 Y120.981 E17.2004
G1 X126.567 Y121.07 E17.21454
G1 X106.567 Y121.07 E17.57005
G1 X106.034 Y121.03 E17.57956
G1 X105.514 Y120.911 E17.58904
G1 X105.017 Y120.716 E17.59853
G1 X104.554 Y120.449 E17.60803
G1 X104.137 Y120.115 E17.61753
G1 X103.774 Y119.724 E17.62701
G1 X103.474 Y119.282 E17.63651
G1 X103.242 Y118.801 E17.646
G1 X103.086 Y118.29 E17.6555
G1 X102.997 Y117.5 E17.66963
G1 X102.997 Y97.5 E18.02515
G1 X103.037 Y96.967 E18.03465
G1 X103.156 Y96.447 E18.04413
G1 X103.351 Y95.95 E18.05362
G1 X103.618 Y95.487 E18.06312
G1 X103.952 Y95.07 E18.07262
M204 S625
